images/visa-secure.svg

<?xml version="1.0" encoding="utf-8"?>
<!-- Generator: Adobe Illustrator 24.1.2, SVG Export Plug-In . SVG Version: 6.00 Build 0)  -->
<svg version="1.1" id="Layer_1" xmlns="http://www.w3.org/2000/svg" xmlns:xlink="http://www.w3.org/1999/xlink" x="0px" y="0px"
	 viewBox="0 0 185 93" style="enable-background:new 0 0 185 93;" xml:space="preserve">
<style type="text/css">
	.st0{fill:#FCF5A3;}
</style>
<desc>Created with Sketch.</desc>
<g id="Page-1">
	<g id="visa-secure">
		<g id="Group">
			<path id="Path" class="st0" d="M10.1,32.5L0.3,2.4h4.2l4.7,14.8c1.3,4.1,2.4,7.7,3.2,11.3h0.1c0.8-3.5,2.1-7.3,3.4-11.2L21,2.4
				h4.2L14.4,32.5H10.1L10.1,32.5z"/>
			<path id="Shape" class="st0" d="M27.3,22.4c0.1,5.3,3.5,7.5,7.4,7.5c2.8,0,4.5-0.5,6-1.1l0.7,2.8c-1.4,0.6-3.8,1.3-7.2,1.3
				c-6.7,0-10.6-4.4-10.6-10.9s3.8-11.7,10.1-11.7c7.1,0,8.9,6.2,8.9,10.2c0,0.8-0.1,1.4-0.1,1.8L27.3,22.4L27.3,22.4z M38.8,19.6
				c0.1-2.5-1-6.4-5.5-6.4c-4,0-5.7,3.7-6,6.4H38.8z"/>
			<path id="Path_1_" class="st0" d="M45.7,17.6c0-2.5,0-4.7-0.2-6.7h3.4l0.1,4.2h0.2c1-2.9,3.4-4.7,6-4.7c0.4,0,0.8,0,1.1,0.1v3.7
				c-0.4-0.1-0.8-0.1-1.3-0.1c-2.8,0-4.7,2.1-5.3,5c-0.1,0.5-0.2,1.2-0.2,1.8v11.5h-3.9V17.6H45.7z"/>
			<path id="Shape_1_" class="st0" d="M63.1,4.8c0,1.3-0.9,2.4-2.5,2.4c-1.4,0-2.4-1.1-2.4-2.4c0-1.4,1-2.5,2.5-2.5
				C62.1,2.3,63.1,3.4,63.1,4.8L63.1,4.8z M58.7,10.9h3.9v21.6h-3.9V10.9z"/>
			<path id="Path_2_" class="st0" d="M67.8,32.5V13.9h-3v-3h3v-1c0-3,0.7-5.8,2.5-7.6c1.5-1.4,3.4-2,5.3-2c1.4,0,2.6,0.3,3.4,0.6
				l-0.5,3c-0.6-0.3-1.4-0.5-2.5-0.5c-3.3,0-4.2,2.9-4.2,6.3v1.2H77v3h-5.2v18.6H67.8z"/>
			<path id="Shape_2_" class="st0" d="M85.1,4.8c0.1,1.3-0.9,2.4-2.5,2.4c-1.4,0-2.4-1.1-2.4-2.4c0-1.4,1-2.5,2.5-2.5
				S85.1,3.4,85.1,4.8L85.1,4.8z M80.7,10.9h3.9v21.6h-3.9V10.9z"/>
			<path id="Shape_3_" class="st0" d="M91.6,22.4c0.1,5.3,3.5,7.5,7.4,7.5c2.8,0,4.5-0.5,6-1.1l0.7,2.8c-1.4,0.6-3.8,1.3-7.2,1.3
				c-6.7,0-10.6-4.4-10.6-10.9S91.7,10.3,98,10.3c7.1,0,8.9,6.2,8.9,10.2c0,0.8-0.1,1.4-0.1,1.8L91.6,22.4L91.6,22.4z M103.1,19.6
				c0-2.5-1-6.4-5.5-6.4c-4,0-5.7,3.7-6,6.4H103.1z"/>
			<path id="Shape_4_" class="st0" d="M128.7,0.8v26.1c0,1.9,0,4.1,0.2,5.6h-3.5l-0.2-3.8h-0.1c-1.2,2.4-3.8,4.2-7.4,4.2
				c-5.2,0-9.2-4.4-9.2-11c0-7.2,4.4-11.6,9.7-11.6c3.3,0,5.5,1.6,6.5,3.3h0.1V0.8H128.7z M124.8,19.7c0-0.5,0-1.2-0.2-1.7
				c-0.6-2.5-2.7-4.6-5.7-4.6c-4.1,0-6.5,3.6-6.5,8.4c0,4.4,2.1,8,6.4,8c2.6,0,5-1.7,5.8-4.7c0.1-0.5,0.2-1.1,0.2-1.7V19.7z"/>
			<path id="Shape_5_" class="st0" d="M143.2,32.5c0.1-1.5,0.2-3.7,0.2-5.6V0.8h3.9v13.6h0.1c1.4-2.4,3.9-4,7.4-4
				c5.4,0,9.2,4.5,9.1,11c0,7.7-4.9,11.6-9.7,11.6c-3.1,0-5.6-1.2-7.2-4.1h-0.1l-0.2,3.6H143.2z M147.3,23.8c0,0.5,0.1,1,0.2,1.4
				c0.8,2.7,3,4.6,5.9,4.6c4.1,0,6.6-3.4,6.6-8.3c0-4.3-2.2-8-6.4-8c-2.7,0-5.2,1.8-6,4.8c-0.1,0.4-0.2,1-0.2,1.6L147.3,23.8
				L147.3,23.8L147.3,23.8z"/>
			<path id="Path_3_" class="st0" d="M168.2,10.9l4.7,12.8c0.5,1.4,1,3.1,1.4,4.4h0.1c0.4-1.3,0.8-3,1.4-4.5l4.3-12.7h4.2l-5.9,15.4
				c-2.8,7.4-4.7,11.2-7.4,13.5c-1.9,1.7-3.8,2.4-4.8,2.5l-1-3.3c1-0.3,2.3-0.9,3.4-1.9c1.1-0.8,2.4-2.4,3.3-4.4
				c0.2-0.4,0.3-0.7,0.3-0.9c0-0.2-0.1-0.5-0.3-1l-8-19.9H168.2L168.2,10.9z"/>
		</g>
		<g id="Group_1_" transform="translate(23.000000, 46.000000)">
			<path id="Path_4_" class="st0" d="M42.5,1.2L30.6,31.3L25.8,5.7c-0.6-2.9-2.8-4.5-5.3-4.5H1L0.7,2.5c4,0.9,8.5,2.3,11.3,3.8
				c1.7,0.9,2.2,1.7,2.7,3.9l9.1,35.3H36L54.6,1.2H42.5L42.5,1.2z"/>
			<polygon id="Path_5_" class="st0" points="59.5,1.2 50,45.5 61.5,45.5 70.9,1.2 			"/>
			<path id="Path_6_" class="st0" d="M86,13.5c0-1.6,1.6-3.3,4.9-3.7c1.6-0.2,6.2-0.4,11.3,2l2-9.4c-2.8-1-6.3-2-10.7-2
				c-11.3,0-19.3,6-19.4,14.7c-0.1,6.4,5.7,9.9,10,12c4.5,2.2,6,3.5,5.9,5.5c0,3-3.6,4.3-6.8,4.3c-5.8,0.1-9.1-1.6-11.8-2.8
				l-2.1,9.7C72,45,76.9,46.1,82,46.1c12,0,19.9-5.9,19.9-15.2C102.1,19.4,85.9,18.7,86,13.5"/>
			<path id="Shape_6_" class="st0" d="M119.1,29.8l6.1-16.6l3.4,16.6H119.1z M123.5,1.2c-2.2,0-4.1,1.3-4.9,3.2l-17.2,41h12l2.4-6.6
				h14.7l1.4,6.6h10.6l-9.2-44.3h-9.8V1.2L123.5,1.2z"/>
		</g>
	</g>
</g>
</svg>

<?xml version="1.0" encoding="UTF-8"?>
<svg width="185px" height="93px" viewBox="0 0 185 93" version="1.1" xmlns="http://www.w3.org/2000/svg" xmlns:xlink="http://www.w3.org/1999/xlink">
    <!-- Generator: Sketch 53.2 (72643) - https://sketchapp.com -->
    <title>visa-secure</title>
    <desc>Created with Sketch.</desc>
    <g id="Page-1" stroke="none" stroke-width="1" fill="none" fill-rule="evenodd">
        <g id="visa-secure" fill="#346275" fill-rule="nonzero">
            <g id="Group">
                <path d="M10.1,32.5 L0.3,2.4 L4.5,2.4 L9.2,17.2 C10.5,21.3 11.6,24.9 12.4,28.5 L12.5,28.5 C13.3,25 14.6,21.2 15.9,17.3 L21,2.4 L25.2,2.4 L14.4,32.5 L10.1,32.5 L10.1,32.5 Z" id="Path"></path>
                <path d="M27.3,22.4 C27.4,27.7 30.8,29.9 34.7,29.9 C37.5,29.9 39.2,29.4 40.7,28.8 L41.4,31.6 C40,32.2 37.6,32.9 34.2,32.9 C27.5,32.9 23.6,28.5 23.6,22 C23.6,15.5 27.4,10.3 33.7,10.3 C40.8,10.3 42.6,16.5 42.6,20.5 C42.6,21.3 42.5,21.9 42.5,22.3 L27.3,22.4 L27.3,22.4 Z M38.8,19.6 C38.9,17.1 37.8,13.2 33.3,13.2 C29.3,13.2 27.6,16.9 27.3,19.6 L38.8,19.6 Z" id="Shape"></path>
                <path d="M45.7,17.6 C45.7,15.1 45.7,12.9 45.5,10.9 L48.9,10.9 L49,15.1 L49.2,15.1 C50.2,12.2 52.6,10.4 55.2,10.4 C55.6,10.4 56,10.4 56.3,10.5 L56.3,14.2 C55.9,14.1 55.5,14.1 55,14.1 C52.2,14.1 50.3,16.2 49.7,19.1 C49.6,19.6 49.5,20.3 49.5,20.9 L49.5,32.4 L45.6,32.4 L45.6,17.6 L45.7,17.6 Z" id="Path"></path>
                <path d="M63.1,4.8 C63.1,6.1 62.2,7.2 60.6,7.2 C59.2,7.2 58.2,6.1 58.2,4.8 C58.2,3.4 59.2,2.3 60.7,2.3 C62.1,2.3 63.1,3.4 63.1,4.8 L63.1,4.8 Z M58.7,10.9 L62.6,10.9 L62.6,32.5 L58.7,32.5 L58.7,10.9 Z" id="Shape"></path>
                <path d="M67.8,32.5 L67.8,13.9 L64.8,13.9 L64.8,10.9 L67.8,10.9 L67.8,9.9 C67.8,6.9 68.5,4.1 70.3,2.3 C71.8,0.9 73.7,0.3 75.6,0.3 C77,0.3 78.2,0.6 79,0.9 L78.5,3.9 C77.9,3.6 77.1,3.4 76,3.4 C72.7,3.4 71.8,6.3 71.8,9.7 L71.8,10.9 L77,10.9 L77,13.9 L71.8,13.9 L71.8,32.5 L67.8,32.5 Z" id="Path"></path>
                <path d="M85.1,4.8 C85.2,6.1 84.2,7.2 82.6,7.2 C81.2,7.2 80.2,6.1 80.2,4.8 C80.2,3.4 81.2,2.3 82.7,2.3 C84.2,2.3 85.1,3.4 85.1,4.8 L85.1,4.8 Z M80.7,10.9 L84.6,10.9 L84.6,32.5 L80.7,32.5 L80.7,10.9 Z" id="Shape"></path>
                <path d="M91.6,22.4 C91.7,27.7 95.1,29.9 99,29.9 C101.8,29.9 103.5,29.4 105,28.8 L105.7,31.6 C104.3,32.2 101.9,32.9 98.5,32.9 C91.8,32.9 87.9,28.5 87.9,22 C87.9,15.5 91.7,10.3 98,10.3 C105.1,10.3 106.9,16.5 106.9,20.5 C106.9,21.3 106.8,21.9 106.8,22.3 L91.6,22.4 L91.6,22.4 Z M103.1,19.6 C103.1,17.1 102.1,13.2 97.6,13.2 C93.6,13.2 91.9,16.9 91.6,19.6 L103.1,19.6 Z" id="Shape"></path>
                <path d="M128.7,0.8 L128.7,26.9 C128.7,28.8 128.7,31 128.9,32.5 L125.4,32.5 L125.2,28.7 L125.1,28.7 C123.9,31.1 121.3,32.9 117.7,32.9 C112.5,32.9 108.5,28.5 108.5,21.9 C108.5,14.7 112.9,10.3 118.2,10.3 C121.5,10.3 123.7,11.9 124.7,13.6 L124.8,13.6 L124.8,0.8 L128.7,0.8 Z M124.8,19.7 C124.8,19.2 124.8,18.5 124.6,18 C124,15.5 121.9,13.4 118.9,13.4 C114.8,13.4 112.4,17 112.4,21.8 C112.4,26.2 114.5,29.8 118.8,29.8 C121.4,29.8 123.8,28.1 124.6,25.1 C124.7,24.6 124.8,24 124.8,23.4 L124.8,19.7 Z" id="Shape"></path>
                <path d="M143.2,32.5 C143.3,31 143.4,28.8 143.4,26.9 L143.4,0.8 L147.3,0.8 L147.3,14.4 L147.4,14.4 C148.8,12 151.3,10.4 154.8,10.4 C160.2,10.4 164,14.9 163.9,21.4 C163.9,29.1 159,33 154.2,33 C151.1,33 148.6,31.8 147,28.9 L146.9,28.9 L146.7,32.5 L143.2,32.5 Z M147.3,23.8 C147.3,24.3 147.4,24.8 147.5,25.2 C148.3,27.9 150.5,29.8 153.4,29.8 C157.5,29.8 160,26.4 160,21.5 C160,17.2 157.8,13.5 153.6,13.5 C150.9,13.5 148.4,15.3 147.6,18.3 C147.5,18.7 147.4,19.3 147.4,19.9 L147.4,23.8 L147.3,23.8 L147.3,23.8 Z" id="Shape"></path>
                <path d="M168.2,10.9 L172.9,23.7 C173.4,25.1 173.9,26.8 174.3,28.1 L174.4,28.1 C174.8,26.8 175.2,25.1 175.8,23.6 L180.1,10.9 L184.3,10.9 L178.4,26.3 C175.6,33.7 173.7,37.5 171,39.8 C169.1,41.5 167.2,42.2 166.2,42.3 L165.2,39 C166.2,38.7 167.5,38.1 168.6,37.1 C169.7,36.3 171,34.7 171.9,32.7 C172.1,32.3 172.2,32 172.2,31.8 C172.2,31.6 172.1,31.3 171.9,30.8 L163.9,10.9 L168.2,10.9 L168.2,10.9 Z" id="Path"></path>
            </g>
            <g id="Group" transform="translate(23.000000, 46.000000)">
                <path d="M42.5,1.2 L30.6,31.3 L25.8,5.7 C25.2,2.8 23,1.2 20.5,1.2 L1,1.2 L0.7,2.5 C4.7,3.4 9.2,4.8 12,6.3 C13.7,7.2 14.2,8 14.7,10.2 L23.8,45.5 L36,45.5 L54.6,1.2 L42.5,1.2 L42.5,1.2 Z" id="Path"></path>
                <polygon id="Path" points="59.5 1.2 50 45.5 61.5 45.5 70.9 1.2"></polygon>
                <path d="M86,13.5 C86,11.9 87.6,10.2 90.9,9.8 C92.5,9.6 97.1,9.4 102.2,11.8 L104.2,2.4 C101.4,1.4 97.9,0.4 93.5,0.4 C82.2,0.4 74.2,6.4 74.1,15.1 C74,21.5 79.8,25 84.1,27.1 C88.6,29.3 90.1,30.6 90,32.6 C90,35.6 86.4,36.9 83.2,36.9 C77.4,37 74.1,35.3 71.4,34.1 L69.3,43.8 C72,45 76.9,46.1 82,46.1 C94,46.1 101.9,40.2 101.9,30.9 C102.1,19.4 85.9,18.7 86,13.5" id="Path"></path>
                <path d="M119.1,29.8 L125.2,13.2 L128.6,29.8 L119.1,29.8 Z M123.5,1.2 C121.3,1.2 119.4,2.5 118.6,4.4 L101.4,45.4 L113.4,45.4 L115.8,38.8 L130.5,38.8 L131.9,45.4 L142.5,45.4 L133.3,1.1 L123.5,1.1 L123.5,1.2 L123.5,1.2 Z" id="Shape"></path>
            </g>
        </g>
    </g>
</svg>
